flaticon/constructions/socket-7.svg

<svg xmlns="http://www.w3.org/2000/svg" width="32" height="32" viewBox="0 0 24 24">
    <path d="M 18.398438 0 L 5.601562 0 C 4.28125 0 3.199219 1.078125 3.199219 2.398438 L 3.199219 21.601562 C 3.199219 22.921875 4.28125 24 5.601562 24 L 18.398438 24 C 19.71875 24 20.800781 22.921875 20.800781 21.601562 L 20.800781 2.398438 C 20.800781 1.078125 19.71875 0 18.398438 0 Z M 20 21.601562 C 20 22.480469 19.28125 23.199219 18.398438 23.199219 L 5.601562 23.199219 C 4.71875 23.199219 4 22.480469 4 21.601562 L 4 2.398438 C 4 1.519531 4.71875 0.800781 5.601562 0.800781 L 18.398438 0.800781 C 19.28125 0.800781 20 1.519531 20 2.398438 Z M 20 21.601562"/>
    <path d="M 17.800781 1.601562 L 6.199219 1.601562 C 5.441406 1.601562 4.800781 2.238281 4.800781 3 L 4.800781 21 C 4.800781 21.761719 5.441406 22.398438 6.199219 22.398438 L 17.800781 22.398438 C 18.558594 22.398438 19.199219 21.761719 19.199219 21 L 19.199219 3 C 19.199219 2.238281 18.558594 1.601562 17.800781 1.601562 Z M 18.398438 21 C 18.398438 21.320312 18.121094 21.601562 17.800781 21.601562 L 6.199219 21.601562 C 5.878906 21.601562 5.601562 21.320312 5.601562 21 L 5.601562 3 C 5.601562 2.679688 5.878906 2.398438 6.199219 2.398438 L 17.800781 2.398438 C 18.121094 2.398438 18.398438 2.679688 18.398438 3 Z M 18.398438 21"/>
    <path d="M15.601562 3.199219L8.398438 3.199219C8.160156 3.199219 8 3.359375 8 3.601562L8 10.800781C8 11.039062 8.160156 11.199219 8.398438 11.199219L15.601562 11.199219C15.839844 11.199219 16 11.039062 16 10.800781L16 3.601562C16 3.359375 15.839844 3.199219 15.601562 3.199219zM15.199219 10.398438L8.800781 10.398438 8.800781 4 15.199219 4zM15.601562 12.800781L8.398438 12.800781C8.160156 12.800781 8 12.960938 8 13.199219L8 20.398438C8 20.640625 8.160156 20.800781 8.398438 20.800781L15.601562 20.800781C15.839844 20.800781 16 20.640625 16 20.398438L16 13.199219C16 12.960938 15.839844 12.800781 15.601562 12.800781zM15.199219 20L8.800781 20 8.800781 13.601562 15.199219 13.601562zM15.199219 20"/>
    <path d="M12.800781 9.199219L13.601562 9.199219C13.839844 9.199219 14 9.039062 14 8.800781 14 8.558594 13.839844 8.398438 13.601562 8.398438L12.800781 8.398438C12.558594 8.398438 12.398438 8.558594 12.398438 8.800781 12.398438 9.039062 12.558594 9.199219 12.800781 9.199219zM10.398438 9.199219L11.199219 9.199219C11.441406 9.199219 11.601562 9.039062 11.601562 8.800781 11.601562 8.558594 11.441406 8.398438 11.199219 8.398438L10.398438 8.398438C10.160156 8.398438 10 8.558594 10 8.800781 10 9.039062 10.160156 9.199219 10.398438 9.199219zM12 6.800781C12.238281 6.800781 12.398438 6.640625 12.398438 6.398438L12.398438 5.199219C12.398438 4.960938 12.238281 4.800781 12 4.800781 11.761719 4.800781 11.601562 4.960938 11.601562 5.199219L11.601562 6.398438C11.601562 6.640625 11.761719 6.800781 12 6.800781zM12.800781 18.800781L13.601562 18.800781C13.839844 18.800781 14 18.640625 14 18.398438 14 18.160156 13.839844 18 13.601562 18L12.800781 18C12.558594 18 12.398438 18.160156 12.398438 18.398438 12.398438 18.640625 12.558594 18.800781 12.800781 18.800781zM10.398438 18.800781L11.199219 18.800781C11.441406 18.800781 11.601562 18.640625 11.601562 18.398438 11.601562 18.160156 11.441406 18 11.199219 18L10.398438 18C10.160156 18 10 18.160156 10 18.398438 10 18.640625 10.160156 18.800781 10.398438 18.800781zM12 16.398438C12.238281 16.398438 12.398438 16.238281 12.398438 16L12.398438 14.800781C12.398438 14.558594 12.238281 14.398438 12 14.398438 11.761719 14.398438 11.601562 14.558594 11.601562 14.800781L11.601562 16C11.601562 16.238281 11.761719 16.398438 12 16.398438zM12 16.398438"/>
</svg>

<svg xmlns="http://www.w3.org/2000/svg" width="32" height="32" viewBox="0 0 24 24">
    <path d="M18.398 0H5.602a2.407 2.407 0 0 0-2.403 2.398v19.204A2.407 2.407 0 0 0 5.602 24h12.796a2.407 2.407 0 0 0 2.403-2.398V2.398A2.407 2.407 0 0 0 18.398 0zM20 21.602c0 .878-.719 1.597-1.602 1.597H5.602A1.603 1.603 0 0 1 4 21.602V2.398C4 1.52 4.719.801 5.602.801h12.796C19.281.8 20 1.52 20 2.398zm0 0"/>
    <path d="M17.8 1.602H6.2c-.759 0-1.4.636-1.4 1.398v18c0 .762.641 1.398 1.4 1.398h11.6c.759 0 1.4-.636 1.4-1.398V3c0-.762-.641-1.398-1.4-1.398zM18.399 21c0 .32-.277.602-.597.602H6.199A.614.614 0 0 1 5.602 21V3c0-.32.277-.602.597-.602h11.602c.32 0 .597.282.597.602zm0 0"/>
    <path d="M15.602 3.2H8.398C8.16 3.2 8 3.36 8 3.601V10.8c0 .238.16.398.398.398h7.204c.238 0 .398-.16.398-.398V3.6c0-.242-.16-.402-.398-.402zm-.403 7.198H8.801V4h6.398zm0 0M15.602 12.8H8.398c-.238 0-.398.16-.398.4v7.198c0 .243.16.403.398.403h7.204c.238 0 .398-.16.398-.403V13.2c0-.238-.16-.398-.398-.398zm-.403 7.2H8.801v-6.398h6.398zm0 0"/>
    <path d="M12.8 9.2h.802c.238 0 .398-.16.398-.4 0-.241-.16-.402-.398-.402H12.8c-.242 0-.403.16-.403.403 0 .238.16.398.403.398zm0 0M10.398 9.2h.801c.242 0 .403-.16.403-.4 0-.241-.16-.402-.403-.402h-.8c-.239 0-.399.16-.399.403 0 .238.16.398.398.398zm0 0M12 6.8c.238 0 .398-.16.398-.402V5.2c0-.238-.16-.398-.398-.398-.238 0-.398.16-.398.398v1.2c0 .242.16.402.398.402zm0 0M12.8 18.8h.802c.238 0 .398-.16.398-.402 0-.238-.16-.398-.398-.398H12.8c-.242 0-.403.16-.403.398 0 .243.16.403.403.403zm0 0M10.398 18.8h.801c.242 0 .403-.16.403-.402 0-.238-.16-.398-.403-.398h-.8c-.239 0-.399.16-.399.398 0 .243.16.403.398.403zm0 0M12 16.398c.238 0 .398-.16.398-.398v-1.2c0-.241-.16-.402-.398-.402-.238 0-.398.16-.398.403V16c0 .238.16.398.398.398zm0 0"/>
</svg>
